!!!COM: Scriabin, Alexander
!!!OTL@@FR: Prélude
!!!OTL@@EN: Prelude
!!!OPR@@FR: 24 Préludes
!!!OPR@@EN:
!!!OPS: 11
!!!ONM: 7
!!!ODT: 1895
!!!AGN: Prelude
**kern	**kern	**dynam
*staff2	*staff1	*staff1/2
*Ipiano	*Ipiano	*
*clefF4	*clefG2	*
*k[f#c#g#]	*k[f#c#g#]	*
*A:	*A:	*
*M6/8	*M6/8	*
*	*^	*
8EE	8a	16rc	.
.	.	16B	.
=1	=1	=1	=1
8AAAL 8AA	8g#L	16c#LL	.
.	.	16B	.
8E	8a	16c#	.
.	.	16EJJ	.
8EEJ	8ddJ	16rc	.
.	.	16e	.
8AAAL 8AA	4cc#	16f#LL	.
.	.	16e	.
8E	.	16a	.
.	.	16c#JJ	.
8DDJ	8dd	16rc	.
.	.	16e	.
=2	=2	=2	=2
8AAAL 8AA	8cc#L	16f#LL	.
.	.	16e	.
8F#	8dd	16f#	.
.	.	16BJJ	.
8DDJ	8gg#J	16rc	.
.	.	16a	.
8AAAL 8AA	4ff#	16bLL	.
.	.	16a	.
8B	.	16dd	.
.	.	16f#JJ	.
8EEJ	8ff#	16rc	.
.	.	16g#	.
=3	=3	=3	=3
8AAAL 8AA	8eeL	16aLL	.
.	.	16g#	.
8F#	8dd	16f#	.
.	.	16BJJ	.
8EEJ	8ddJ	16rc	.
.	.	16e	.
8AAAL 8AA	8cc#L	16f#LL	.
.	.	16e	.
8F#	8b	16d	.
.	.	16F#JJ	.
8EEJ	8f#J	16F#LL	.
.	.	16G#JJ	.
=4	=4	=4	=4
4AAA 4BB	4d 4e	16ALL	.
.	.	16G#	.
.	.	16F#	.
.	.	16EJJ	.
8EE	8d 8f#	16F#LL	.
.	.	16G#JJ	.
4AAA 4BB	4d 4e	16ALL	.
.	.	16G#	.
.	.	16F#	.
.	.	16EJJ	.
8EE	8a	16rc	.
.	.	16B	.
=5	=5	=5	=5
8AAAL 8AA	8g#L	16c#LL	.
.	.	16B	.
8E	8a	16c#	.
.	.	16eJJ	.
8FF#J	8ff#J	16rc	.
.	.	16g#	.
8FFF#L	4ee	16aLL	.
.	.	16g#	.
8E	.	16a	.
.	.	16c#JJ	.
8FF#J	8cc#	16rc	.
.	.	16d	.
=6	=6	=6	=6
8BBBL 8BB	8bL	16eLL	.
.	.	16d	.
8D	8a	16f#	.
.	.	16BJJ	.
8FF#J	8gg#J	16rc	.
.	.	16a	.
8BBBL 8BB	4ff#	16bLL	.
.	.	16a	.
8A	.	16dd	.
.	.	16f#JJ	.
8BBJ	8ff#	16rc	.
.	.	16g#	.
=7	=7	=7	=7
8EEL 8F#	8eeL	16aLL	.
.	.	16g#	.
8B	8dd	16f#	.
.	.	16BJJ	.
8BBJ	8ddJ	16rc	.
.	.	16e	.
8EEL 8F#	8cc#L	16f#LL	.
.	.	16e	.
8A	8b	16d	.
.	.	16F#JJ	.
8EEJ	8cc#J	16rc	.
.	.	16e	.
=8	=8	=8	=8
8AAAL 8AA	4a	16f#LL	.
.	.	16e	.
8E	.	16B	.
.	.	16c#JJ	.
8EEJ	8cc#	16dLL	.
.	.	16eJJ	.
8AAAL 8AA	4a	16f#LL	.
.	.	16e	.
8E	.	16B	.
.	.	16c#JJ	.
8CC#J	8a	16rc	.
.	.	16B	.
=9	=9	=9	=9
8FFF#L 8FF#	8g#L	16c#LL	.
.	.	16B	.
8E	8a	16c#	.
.	.	16E	.
8CC#J	8aJ 8cc#	16c#	.
.	.	16d#XJJ	.
8FFF#L 8FF#	8g#L 8b	16eLL	.
.	.	16d#	.
8AA 8A	8a 8cc#	16c#	.
.	.	16E	.
8FFF#J 8FF#	8aJ 8cc#	16c#	.
.	.	16d#JJ	.
=10	=10	=10	=10
8BBBBL 8BBB	8g#L 8b	16eLL	.
.	.	16d#X	.
8C# 8c#	8a 8cc#	16c#	.
.	.	16A	.
8BBBBJ 8BBB	8d#J 8dd#X	16a	.
.	.	16cc#JJ	.
8EEEL 8EE	4e 4ee	16aLL	.
.	.	16b	.
8BB 8B	.	16g#	.
.	.	16eJJ	.
8BBBJ	8gn	16rc	.
.	.	16A	.
=11	=11	=11	=11
8EEEL 8EE	8f#L	16BLL	.
.	.	16A	.
8D	8gn	16B	.
.	.	16D	.
8BBBJ	8gJ 8b	16B	.
.	.	16c#JJ	.
8EEEL 8EE	8f#L 8a	16dnLL	.
.	.	16c#	.
8GGn 8Gn	8g 8b	16B	.
.	.	16D	.
8EEEJ 8EE	8gJ 8b	16B	.
.	.	16c#JJ	.
=12	=12	=12	=12
8AAAAL 8AAA	8f#L 8a	16dLL	.
.	.	16c#	.
8BB 8B	8gn 8b	16B	.
.	.	16Gn	.
8AAAAJ 8AAA	8c#J 8cc#	16g	.
.	.	16bJJ	.
8DDDL 8DD	4d 4dd	16gLL	.
.	.	16a	.
8AA 8A	.	16f#	.
.	.	16dJJ	.
8AAAJ 8AA	8a 8ccn	16cnLL	.
.	.	16eJJ	.
=13	=13	=13	=13
4FF# 4F#	8aL 8b	16BLL	.
.	.	16e	.
.	8a 8ccn	16cn	.
.	.	16e	.
8BBB 8BB	[8aJ [8cc	16c	.
.	.	16d#XJJ	.
8GGnL 8Gn	4a] 4cc]	16cLL	.
.	.	16e	.
8FF# 8F#	.	16c	.
.	.	16d#	.
8AAAJ 8AA	8a 8cc	16c	.
.	.	16eJJ	.
=14	=14	=14	=14
4FF# 4F#	8aL 8b	16BLL	.
.	.	16e	.
.	8a 8ccn	16cn	.
.	.	16e	.
8BBB 8BB	[8aJ [8cc	16c	.
.	.	16d#XJJ	.
8GGnL 8Gn	4a] 4cc]	16cLL	.
.	.	16e	.
8FF# 8F#	.	16c	.
.	.	16d#JJ	.
8BBBJ 8BB	8f# 8ff#	16ddnLL	.
.	.	16aJJ	.
=15	=15	=15	=15
8FF#L 8D 8A	8eL 8ee	16ddLL	.
.	.	16a	.
8D 8A 8d	8f# 8ff#	16dd	.
.	.	16a	.
8BBBJ 8BB	8aJ 8aa	16dd	.
.	.	16ff#JJ	.
8FF#L 8D 8A	8g#L 8gg#	16ddLL	.
.	.	16a	.
8D 8A 8d	8f# 8ff#	16dd	.
.	.	16a	.
8EEEJ 8EE	8f#J 8ff#	16dd	.
.	.	16g#JJ	.
=16	=16	=16	=16
8EEL 8BB 8G#	8f#L 8ff#	16ddLL	.
.	.	16g#	.
8D 8G# 8d	8e 8ee	16dd	.
.	.	16g#	.
8EEJ 8E	8cc#J 8ccc#	16gg#	.
.	.	16eeJJ	.
4E 4d 4g#	8cc#L 8ccc#	16gg#LL	.
.	.	16ee	.
.	8b 8bb	16gg#	.
.	.	16eeJJ	.
8EE 8E	8aJ 8aa	16rc	.
.	.	16b	.
=17	=17	=17	=17
8AAAAL 8AAA	8g#L 8gg#	16cc#LL	.
.	.	16b	.
8E 8e	8a 8aa	16cc#	.
.	.	16eJJ	.
8EEJ 8E	8ddJ 8ddd	16rc	.
.	.	16ee	.
8AAAAL 8AAA	4cc# 4ccc#	16ff#LL	.
.	.	16ee	.
8E 8e	.	16aa	.
.	.	16cc#JJ	.
8DDJ 8D	8dd 8ddd	16rc	.
.	.	16ee	.
=18	=18	=18	=18
8AAAAL 8AAA	8cc#L 8ccc#	16ff#LL	.
.	.	16ee	.
8F# 8d 8a	8dd 8ddd	16ff#	.
.	.	16bJJ	.
8DDJ 8D	8gg#J 8ggg#	16rc	.
.	.	16aa	.
8AAAAL 8AAA	4ff# 4fff#	16bbLL	.
.	.	16aa	.
8F# 8d 8a	.	16ff#	.
.	.	16bJJ	.
8EEJ 8E	8ddd 8fff#	16ff#LL	.
.	.	16gg#JJ	.
=19	=19	=19	=19
8AAAAL 8AAA	8ccc#L 8eee	16aaLL	.
.	.	16gg#	.
8F# 8B 8d 8a	8bb 8ddd	16ff#	.
.	.	16dd	.
8EEJ 8E	8bbJ 8ddd	16dd	.
.	.	16eeJJ	.
8AAAAL 8AAA	8aaL 8ccc#	16ff#LL	.
.	.	16ee	.
8D 8A 8B 8f#	8ff# 8bb	16dd	.
.	.	16b	.
8EEJ	8ddJ 8ff#	16f#	.
.	.	16g#JJ	.
=20	=20	=20	=20
8AAAL 8BB	8cc#L 8ee	16aLL	.
.	.	16g#	.
8BB 8F# 8B	8b 8dd	16f#	.
.	.	16d	.
8EEJ	8bJ 8dd	16d	.
.	.	16eJJ	.
8AAAL 8BB	8aL 8cc#	16f#LL	.
.	.	16e	.
8F#	8f# 8b	16d	.
.	.	16B	.
8EEJ	8dJ 8f#	16F#	.
.	.	16G#JJ	.
=21	=21	=21	=21
4AAA 4BB	4d 4e	16ALL	.
.	.	16G#	.
.	.	16F#	.
.	.	16E	.
8EE	8d 8f#	16F#	.
.	.	16G#JJ	.
4AAA 4AA	4c# 4e	16ALL	.
.	.	16G#	.
.	.	16F#	.
.	.	16E	.
8EE	8d 8f#	16F#	.
.	.	16G#JJ	.
=22	=22	=22	=22
4AAA 4BB	4d 4e	16ALL	.
.	.	16G#	.
.	.	16F#	.
.	.	16E	.
8EE	8d 8b	16F#	.
.	.	16G#JJ	.
4AAA 4AA	4c# 4e	16ALL	.
.	.	16G#	.
.	.	16F#	.
.	.	16E	.
8r	8d 8f#	16F#	.
.	.	16G#JJ	.
=23	=23	=23	=23
4AAA 4AA	4.c# 4.e	16ALL	.
.	.	16G#	.
.	.	16F#	.
.	.	16E	.
8r	.	16A	.
.	.	16G#JJ	.
4r	4raa	16F#LL	.
.	.	16E	.
.	.	16A	.
.	.	16G#	.
8EEE 8EE	8raa	16F#	.
.	.	16EJJ	.
*	*v	*v	*
=24	=24	=24
4.AAAA 4.AAA	4r	.
.	8r	.
4.E 4.A 4.e	4.a 4.cc# 4.aa	.
==	==	==
*-	*-	*-
!!!system-decoration: {(*)}
!!!ENC: Bryan Jacob Bell
!!!END: November 2021 to April 2022
!!!PED: Günter Philipp
!!!PTL: Ausgewählte Klavierwerke (Edition Peters)
